X:552
T:If the Sea Were Ink.
T:da m-bu.d n-.duba.c an .muir lan.
N:"Moderate." "Collected from F. O'Neill."
B:O'Neill's 552
Z:Transcribed by J.B. Walsh (walsh@math.ubc.ca)
M:C
L:1/8
K:G
e/f/g/e/|dBAB G2 GB|d2 ef e2 dB|A2 AB dBAB|G4 z2Hx:|
Bd|e2 dB d2 ef|g2 "~"ga b2 ag|e2 ge edBd|e3f/e/ d2 Bd|
e2 dB d2 ef|g2 "~"ga c'b2 ag|fe2 ge edBd|e3d Hg2 "D.C."||
